X:1
T:St. Columba, CM
T:Ancient Irish Tune
T:St. Columba, CM
T:Public Domain
C:Ancient Irish Tune
Z:Public Domain
%%score ( 1 2 ) ( 3 4 )
L:1/8
M:3/4
K:Eb
V:1 treble 
V:2 treble 
V:3 bass 
V:4 bass 
V:1
 (EF) | [EG]4 [EA]2 | [DB]4 ([EA][FB]) | [EG]4 [DF]2 | [B,E]4 (EF) | [EG]4 [EA]2 | [EB]4 (AB) | %7
 (E4 F2) | [GB]4 (GF) | [Ee]4 [Fc]2 | [GB]4 [FA]2 | [EG]4 [DF]2 | [CE]4 [DG]2 | [EB]4 [EA]2 | %14
 [EG]4 [DF]2 | (E4- [CE]2) | [B,E]4 |] %17
V:2
 B,2 | x6 | x6 | x6 | x6 | x6 | x4 C2 | B6 | x4 B2 | x6 | x6 | x6 | x6 | x6 | x6 | x6 | x4 |] %17
V:3
 (G,A,) | E,2 D,2 [C,A,]2 | [D,F,]4 ([C,E,][D,B,]) | (E,2 G,,2) (B,A,) | [E,G,]4 (G,A,) | %5
 [B,,B,]4 [A,,C]2 | [G,,B,]4 [A,,E,]2 | (G,4 A,2) | [E,B,]4 (E,D,) | [C,C]4 [D,A,]2 | %10
 [E,G,]4 [F,C]2 | [G,B,]3 [A,C] [B,D]2 | [CE]4 [B,D]2 | (G,2 G,,2) [A,,C]2 | [B,,B,]4 [B,,A,]2 | %15
 (G,4 A,2) | [E,G,]4 |] %17
V:4
 E,2 | B,4 x2 | x6 | B,4 B,,2 | x4 C,2 | x6 | x6 | E,6 | x4 B,2 | x6 | x6 | x6 | x6 | B,4 x2 | x6 | %15
 E,6 | x4 |] %17

